X: 9481
T: Dark
R: reel
M: 4/4
K: Bminor
f3g fBde|fBeg fBde|fffg fBde|fBdd ABdA|
f3g fBde|faeg fBeB|dded efed|ABde fagf:|
|:e3e eBde|e2ed egfe|deed eBde|edBa fged|
eeee eBde|fgad efde|fged efed|ABde fagf:|

